X:2864
L:1/8
Q:1/8=180
M:4/4
K:G
 ge | d2 BG AGEF | G2 Bd efge | d2 BG AGEG | ea a2 efge | d2 BG AGEF | GABd efge | d2 BG AGEF | 
 GBAF G2 || (3Bcd | g2 dg egde | gabg agef | g2 dg egdg | agef g2 ga | bg g2 agef | gagd Bd d2 | 
 eg g2 ea a2 | dgba g4 |]

